public/images/arrow.svg

<svg width="30" height="30" viewBox="0 0 30 30" fill="none" xmlns="http://www.w3.org/2000/svg">
<path d="M26.9624 18.25C26.9626 18.0492 26.9144 17.8514 26.8219 17.6732C26.7294 17.495 26.5954 17.3417 26.4312 17.2263L23.2624 15L26.4337 12.7613C26.5971 12.6458 26.7304 12.4928 26.8224 12.315C26.9145 12.1373 26.9625 11.9401 26.9624 11.74L26.8224 7.5L19.5624 12.128L14.9999 15L19.5624 17.8996L26.9624 22.5L26.9624 18.25Z" fill="url(#paint0_linear_347_1822)"/>
<path d="M25.7087 8.71997L25.7062 13.2775L23.2612 15.0075L25.7062 16.725L25.7075 21.2787L15.2 15.0287L25.7087 8.71997Z" fill="url(#paint1_linear_347_1822)"/>
<g filter="url(#filter0_bii_347_1822)">
<path d="M26.9525 27.5014L26.9563 22.0214L19.5625 17.6251L15.1875 15.0376L19.5625 12.4126L26.9538 7.98011L26.9238 2.49261C26.9226 2.27304 26.8636 2.05766 26.7527 1.86815C26.6418 1.67865 26.4829 1.5217 26.292 1.4131C26.1012 1.3045 25.8851 1.24809 25.6656 1.24954C25.446 1.25099 25.2307 1.31025 25.0413 1.42136L3.66005 13.9464C3.47162 14.0567 3.31539 14.2145 3.20691 14.404C3.09843 14.5935 3.04148 14.8081 3.04173 15.0264C3.04199 15.2448 3.09943 15.4593 3.20835 15.6485C3.31728 15.8378 3.47387 15.9952 3.66255 16.1051L25.0725 28.5801C25.2624 28.6909 25.4782 28.7497 25.698 28.7505C25.9178 28.7513 26.134 28.6941 26.3247 28.5847C26.5153 28.4753 26.6738 28.3175 26.784 28.1273C26.8943 27.9371 26.9524 27.7212 26.9525 27.5014Z" fill="white" fill-opacity="0.2"/>
</g>
<defs>
<filter id="filter0_bii_347_1822" x="-0.958252" y="-2.75049" width="31.9146" height="35.501" filterUnits="userSpaceOnUse" color-interpolation-filters="sRGB">
<feFlood flood-opacity="0" result="BackgroundImageFix"/>
<feGaussianBlur in="BackgroundImageFix" stdDeviation="2"/>
<feComposite in2="SourceAlpha" operator="in" result="effect1_backgroundBlur_347_1822"/>
<feBlend mode="normal" in="SourceGraphic" in2="effect1_backgroundBlur_347_1822" result="shape"/>
<feColorMatrix in="SourceAlpha" type="matrix" values="0 0 0 0 0 0 0 0 0 0 0 0 0 0 0 0 0 0 127 0" result="hardAlpha"/>
<feOffset dy="-4"/>
<feGaussianBlur stdDeviation="2"/>
<feComposite in2="hardAlpha" operator="arithmetic" k2="-1" k3="1"/>
<feColorMatrix type="matrix" values="0 0 0 0 1 0 0 0 0 1 0 0 0 0 1 0 0 0 0.05 0"/>
<feBlend mode="normal" in2="shape" result="effect2_innerShadow_347_1822"/>
<feColorMatrix in="SourceAlpha" type="matrix" values="0 0 0 0 0 0 0 0 0 0 0 0 0 0 0 0 0 0 127 0" result="hardAlpha"/>
<feOffset dx="-4" dy="-4"/>
<feGaussianBlur stdDeviation="2"/>
<feComposite in2="hardAlpha" operator="arithmetic" k2="-1" k3="1"/>
<feColorMatrix type="matrix" values="0 0 0 0 1 0 0 0 0 1 0 0 0 0 1 0 0 0 0.05 0"/>
<feBlend mode="normal" in2="effect2_innerShadow_347_1822" result="effect3_innerShadow_347_1822"/>
</filter>
<linearGradient id="paint0_linear_347_1822" x1="26.9624" y1="15" x2="14.9999" y2="15" gradientUnits="userSpaceOnUse">
<stop offset="0.451042" stop-color="#9A63E4"/>
<stop offset="1" stop-color="#07B4EB"/>
</linearGradient>
<linearGradient id="paint1_linear_347_1822" x1="25.7087" y1="14.9993" x2="15.2" y2="14.9993" gradientUnits="userSpaceOnUse">
<stop offset="0.451042" stop-color="#9A63E4"/>
<stop offset="1" stop-color="#D6BFF4"/>
</linearGradient>
</defs>
</svg>

<svg width="30" height="30" fill="none" xmlns="http://www.w3.org/2000/svg"><path d="M26.962 18.25a1.25 1.25 0 0 0-.53-1.024L23.261 15l3.172-2.239a1.25 1.25 0 0 0 .528-1.021l-.14-4.24-7.26 4.628L15 15l4.562 2.9 7.4 4.6v-4.25Z" fill="url(#a)"/><path d="m25.709 8.72-.003 4.557-2.445 1.73 2.445 1.718.002 4.554-10.508-6.25L25.709 8.72Z" fill="url(#b)"/><g filter="url(#c)"><path d="m26.953 27.501.003-5.48-7.393-4.396-4.375-2.587 4.374-2.625 7.392-4.433-.03-5.487A1.25 1.25 0 0 0 25.04 1.42L3.66 13.946a1.25 1.25 0 0 0 .003 2.16l21.41 12.474a1.25 1.25 0 0 0 1.88-1.079Z" fill="#fff" fill-opacity=".2"/></g><defs><linearGradient id="a" x1="26.962" y1="15" x2="15" y2="15" gradientUnits="userSpaceOnUse"><stop offset=".451" stop-color="#9A63E4"/><stop offset="1" stop-color="#07B4EB"/></linearGradient><linearGradient id="b" x1="25.709" y1="14.999" x2="15.2" y2="14.999" gradientUnits="userSpaceOnUse"><stop offset=".451" stop-color="#9A63E4"/><stop offset="1" stop-color="#D6BFF4"/></linearGradient><filter id="c" x="-.958" y="-2.75" width="31.915" height="35.501" filterUnits="userSpaceOnUse" color-interpolation-filters="sRGB"><feFlood flood-opacity="0" result="BackgroundImageFix"/><feGaussianBlur in="BackgroundImageFix" stdDeviation="2"/><feComposite in2="SourceAlpha" operator="in" result="effect1_backgroundBlur_347_1822"/><feBlend in="SourceGraphic" in2="effect1_backgroundBlur_347_1822" result="shape"/><feColorMatrix in="SourceAlpha" values="0 0 0 0 0 0 0 0 0 0 0 0 0 0 0 0 0 0 127 0" result="hardAlpha"/><feOffset dy="-4"/><feGaussianBlur stdDeviation="2"/><feComposite in2="hardAlpha" operator="arithmetic" k2="-1" k3="1"/><feColorMatrix values="0 0 0 0 1 0 0 0 0 1 0 0 0 0 1 0 0 0 0.05 0"/><feBlend in2="shape" result="effect2_innerShadow_347_1822"/><feColorMatrix in="SourceAlpha" values="0 0 0 0 0 0 0 0 0 0 0 0 0 0 0 0 0 0 127 0" result="hardAlpha"/><feOffset dx="-4" dy="-4"/><feGaussianBlur stdDeviation="2"/><feComposite in2="hardAlpha" operator="arithmetic" k2="-1" k3="1"/><feColorMatrix values="0 0 0 0 1 0 0 0 0 1 0 0 0 0 1 0 0 0 0.05 0"/><feBlend in2="effect2_innerShadow_347_1822" result="effect3_innerShadow_347_1822"/></filter></defs></svg>
